X:1
T:Up Sligo
N:from the box playing of Sally Sloane
Z:Ian Hayden 2017
L:1/8
M:6/8
K:D
|:EBB BAG|FDF AFD|EBB Bcd|AFD E2D|
|EBB BAG|FGF AFD|EBB Bcd|AFD E2D:|
|:Bee efg|fdf edA|Bee efg|fdf e2A|
|Bee efg|fdf edA|B2B Bcd|AFD E3:|
N:transposed to Am:
K:Gmaj
|:Aee edc|BGB dBG|Aee efg|dBG A2G|
|Aee edc|BcB dBG|Aee efg|dBG A2G:|
|:eaa abc'|bgb agd|eaa abc'|bgb a2d|
|eaa abc'|bgb agd|e2e efg|dBG A3:|
